X: 19150
T: Irish, The
R: mazurka
M: 3/4
K: Gmajor
|:DG|B2 BA GB|d2 dB AB|c2 cA FA|(3Bcd g2 DG|
B2 BA GB|d2 dB AB|c2 cA FA|1 G4:|2 G3 ggf||
|:e2 ce ce|d2 dB AB|c2 cA FA|B2 B ggf|
e2 ce ce|d2 dB AB|c2 cA FA|1 G3 ggf:|2 G4||
|:DG|B2 BA GB|d2 d2 AB|c2 ce dc|B2 B2 DG|
B2 BA GB|d2 d2 AB|cB cA EF|G4:|
|:gf|e2 ef (3gfe|d2 d2 AB|c2 ce dc|B2 B2 gf|
e2 ef (3gfe|d2 d2 AB|cB cA EF|G4:|
DG|B2 BA GB|d2 dB AB|c2 ce dc|Bd g2 DG|
B2 BA GB|d2 dB AB|c2 cA FA|1 G4:|2 G3 ggf||
|:e2 ce ce|d2 dB AB|c2 ce dc|B3 ggf|
e2 ce ce|d2 dB AB|c2 cA FA|1 G3 ggf:|2 G4||

